app/images/icons/icons8-google-slides.svg

<svg height="48" viewBox="0 0 48 48" width="48" xmlns="http://www.w3.org/2000/svg"><path d="m37 45h-26c-1.657 0-3-1.343-3-3v-36c0-1.657 1.343-3 3-3h19l10 10v29c0 1.657-1.343 3-3 3z" fill="#ffc107"/><path d="m40 13h-10v-10z" fill="#ffecb3"/><path d="m30 13 10 10v-10z" fill="#ffa000"/><path d="m30 22h-12c-1.1 0-2 .9-2 2v12c0 1.1.9 2 2 2h12c1.1 0 2-.9 2-2v-12c0-1.1-.9-2-2-2zm0 4v8h-12v-8z" fill="#fff"/></svg>

<svg xmlns="http://www.w3.org/2000/svg" viewBox="0 0 48 48" width="48px" height="48px"><path fill="#ffc107" d="M37,45H11c-1.657,0-3-1.343-3-3V6c0-1.657,1.343-3,3-3h19l10,10v29C40,43.657,38.657,45,37,45z"/><path fill="#ffecb3" d="M40 13L30 13 30 3z"/><path fill="#ffa000" d="M30 13L40 23 40 13z"/><path fill="#fff" d="M30,22H18c-1.1,0-2,0.9-2,2v12c0,1.1,0.9,2,2,2h12c1.1,0,2-0.9,2-2V24C32,22.9,31.1,22,30,22z M30,26v8H18v-8H30z"/></svg>
